icons/assets/dark/workspace-folder-open.svg

<svg width="48" height="48" viewBox="0 0 48 48" fill="none" xmlns="http://www.w3.org/2000/svg">
<path d="M40 36C40 38.2091 38.2091 40 36 40C33.7909 40 32 38.2091 32 36C32 33.7909 33.7909 32 36 32C38.2091 32 40 33.7909 40 36Z" stroke="#62646A" stroke-width="3.5"/>
<path fill-rule="evenodd" clip-rule="evenodd" d="M8.0061 8.39334C7.03961 8.39334 6.2561 9.17684 6.2561 10.1433V37.8566C6.2561 38.8231 7.03961 39.6066 8.0061 39.6066H27.7518C27.2817 38.5331 27.0151 37.3502 27.0006 36.1066H10.3794L13.1386 27.1891H34.156C34.7512 27.0651 35.368 27 36 27C37.8672 27 39.6016 27.5686 41.0394 28.5421L41.6942 25.8531C41.8212 25.3313 41.7017 24.7801 41.3699 24.3579C41.0381 23.9356 40.5309 23.6891 39.9939 23.6891H11.8482C11.0809 23.6891 10.4032 24.1888 10.1764 24.9218L9.7561 26.2801V11.8933H17.7438L19.8687 14.6448C20.2001 15.0739 20.7116 15.3251 21.2538 15.3251H36.4135V18.4795C36.4135 19.446 37.197 20.2295 38.1635 20.2295C39.13 20.2295 39.9135 19.446 39.9135 18.4795V13.5751C39.9135 12.6086 39.13 11.8251 38.1635 11.8251H22.1134L19.9885 9.07369C19.6571 8.64461 19.1456 8.39334 18.6034 8.39334H8.0061Z" fill="#62646A"/>
</svg>

<svg width="48" height="48" fill="none" xmlns="http://www.w3.org/2000/svg"><path d="M40 36a4 4 0 11-8 0 4 4 0 018 0z" stroke="#62646A" stroke-width="3.5"/><path fill-rule="evenodd" clip-rule="evenodd" d="M8.006 8.393a1.75 1.75 0 00-1.75 1.75v27.714c0 .966.784 1.75 1.75 1.75h19.746a8.966 8.966 0 01-.751-3.5H10.379l2.76-8.918h21.017a9.034 9.034 0 016.883 1.353l.655-2.689a1.75 1.75 0 00-1.7-2.164H11.848c-.767 0-1.445.5-1.672 1.233l-.42 1.358V11.893h7.988l2.125 2.752c.331.429.843.68 1.385.68h15.16v3.155a1.75 1.75 0 103.5 0v-4.905a1.75 1.75 0 00-1.75-1.75h-16.05l-2.126-2.751a1.75 1.75 0 00-1.385-.68H8.006z" fill="#62646A"/></svg>
